X: 388
T: Quanjia laodong
L: 1/16
M: 2/4
K: D
d2 d d e c B A [I:setbarnb 1]| 
F A F B, A,2 A, B, | 
d2 d d e c B A | 
F A F B,A,4 | 
d2 F A B2 d2 | 
d2 F A B A F E | 
D B, D E A2 A E | 
D8 |]

@@@ Tune index: 9262
